X:1
T:Plaisir d'Amour
T:Plaisir d'Amour
T:Giovanni Battista Martini
T:Edition Copyright © Christopher Moore 2004
T:Edition Copyright © Christopher Moore 2004
T:Edition Copyright © Christopher Moore 2004
T:Edition Copyright © Christopher Moore 2004
T:Edition Copyright © Christopher Moore 2004
T:Edition Copyright © Christopher Moore 2004
C:Giovanni Battista Martini
Z:Edition Copyright © Christopher Moore 2004
%%score 1 { 2 | 3 }
L:1/8
Q:1/4=78
M:6/8
K:G
V:1 treble nm="Voice" snm="V"
V:2 treble nm="Keyboard" snm="Kb"
V:3 bass 
V:1
"^Andante" z6 | z6 | z6 | z6 | z6 | z6 | z6 | z2 z z2 D | G3 A3 | B3- B z B | c2 c BAB | %11
w: |||||||Plai-|sir d'a-|mour _ ne|du- re qu'un _ mo-|
 A3- A z D | E3 F3 | GAB EAc | B3 A3 | G3 z2 z | z6 | z6 | z6 | z6 | z2 z z2 G | d3 e3 | def gfe | %23
w: ment, _ Cha-|grin d'a-|mour du- re tou- te la|vi- *|e.|||||J'ai|tout quit-|té pour l'in gra- te Syl-|
 d3 cd/c/B/c/ | B3 z2 z | ^c3 d2 ^d | e2 f gfe | d3 ^cd/c/B/c/ | d6 | z6 | z6 | z6 | z2 z z2 D | %33
w: vi- * * * * *|e,|El- le me|quit- teet prend _ un|au- trea- * * * *|mant!||||Plai-|
 G3 A3 | B3- B z B | c2 c BAB | A3- A z D | E3 F3 | GAB EAc | (B3 A)B/A/G/A/ | G3 z2 z || %41
w: sir d'a-|mour _ ne|du- re qu'un _ mo-|ment, _ Cha-|grin d'a-|mour du- re tou- te la|vi- * * * * *|e.|
[K:Gmin] B3 B2 B | A3 A2 A | B3 B2 B | A3 z z A | B2 B c2 c | (dc)d (ef)g | d3{ed} c2 z | z6 | %49
w: Tant que cette|eau cou- le-|ra dou- ce-|ment Vers|ce ruis- seau qui|bor- * de la _ prai-|ri- e,||
 c3 (cd)e | f3- f3 | ccc cde | f2 d B3 | A3 (AG)^F | G3- G2 d | c2 c (BG)B | B3 !fermata!A2 || %57
w: Je t'ai- * me-|rai _|me ré- pé- tait _ Syl-|vi- * e,|L'eau cou- * leen-|cour, _ elle|a chan- gé _ pour-|tant, _|
[K:G] D | G3 A3 | B3- B z B | c2 c BAB | A3- A z D | E3 F3 | GAB EAc | B3 AB/A/G/A/ | G2 z z2 z | %66
w: Plai-|sir d'a-|mour _ ne|du- re qu- un mo-|ment, _ Cha-|grin d'a-|mour du- re tou- te la|vi- * * * * *|e.|
 z6 | z6 | z6 | z6 | z6 |] %71
w: |||||
V:2
 z6 | z3 d/g/d/B/A/G/ |{FGA} G2 F a/c'/a/f/d/c/ |{Bcd} c2 B d'/^c'/d'/b/a/g/ | %4
{fga} g2 f c'/a/[df]/[ce]/[Bd]/[Ac]/ | %5
 ([GB]/[Ac]/)([Ac]/[Bd]/).[Bd] ([ce]/[df]/)([df]/[eg]/).[eg] | [Bdg]>bg/d/ [Bd]/[Ac]/[GB][FA] | %7
 [B,G][B,G][B,G] [B,G]2 D | B,/D/G/D/B,/G/ A,/D/F/D/A,/F/ | B,/D/G/D/B,/G/ B,/D/G/D/B,/G/ | %10
 C/D/F/D/C/F/ B,/D/G/D/B,/G/ | A,/D/F/D/A,/F/ A,/D/F/D/A,/F/ | A,/E/G/E/A,/G/ A,/D/F/D/A,/F/ | %13
 z/ [DG]/ z/ [FA]/ z/ [GB]/ z/ C/E/A/E/C/ | B,/D/G/D/B,/G/ C/D/F/D/C/D/ | [B,G]2 z d/g/d/B/A/G/ | %16
{FGA} G2 F a/c'/a/f/d/c/ |{Bcd} c2 B [eg]/>[fa]/[eg]/>[df]/[ce] | %18
 [Bd]/>[ce]/[Bd]/>[Ac]/[GB] [eg]/>[fa]/[eg]/>[df]/[ce] | [Bd]/g/b/g/d/B/ c/d/4c/4[GB][FA] | %20
 [B,G][B,DG][B,DG] [B,DG]2 G | B/d/g/d/B/d/ c/e/g/e/c/e/ | [Bd][ce][df] [eg][df][ce] | %23
 B/d/g/d/B/d/ A/d/f/d/A/d/ | B/d/g/d/B/d/ B/d/g/d/B/d/ | ^c/e/a/e/c/e/ d/f/a/f/^d/f/ | %26
 [eg][eg][fa] [gb][fa][eg] | A/d/f/d/A/f/ A/^c/e/c/A/e/ | [Fd]3 z af | g/f/g/a/b [Bd][Ac][GB] | %30
 ([GB]2 [FA]) d/f/a/c'/a/f/ | g/f/g/a/b/g/ g/[Bd]/[Bd]/[Ac]/[Ac]/[GB]/ | [GB]2 (d/[GB]/) [FA]2 z | %33
 B,/D/G/D/B,/G/ A,/D/F/D/A,/F/ | B,/D/G/D/B,/G/ B,/D/G/D/B,/G/ | C/D/F/D/C/F/ B,/D/G/D/B,/G/ | %36
 A,/D/F/D/A,/F/ A,/D/F/D/A,/F/ | A,/E/G/E/A,/G/ A,/D/F/D/A,/F/ | %38
 z/ [B,DG]/ z/ [DFA]/ z/ [DGB]/ z/ C/E/A/E/C/ | B,/D/G/D/B,/G/ C/D/F/D/C/D/ | %40
 [B,G][B,DG][B,DG] [B,DG]2 z ||[K:Gmin] z/ G/B/G/B/G/ z/ g/b/g/b/g/ | %42
 z/ ^f/a/f/a/f/ z/ .e/(e/d/)(d/c/) | B/G/B/G/B/G/ z/ g/b/g/b/g/ | %44
 z/ ^f/a/f/a/f/ z/ .e/(e/d/)(d/c/) | z/ B/d/B/d/B/ A/c/e/c/e/c/ | %46
 [Bd]/[Bd]/[Ac]/[Ac]/[Bd]/[Bd]/ [EGc]3 | D/F/B/d/B/F/ E/F/A/c/A/F/ | %48
 z/ F/=E/(F/G/)F/ z/ f/=e/f/g/f/ | [Ac]3 [Ac][Bd][ce] | [df]/F/=E/(F/G/)F/ z/ f/=e/(f/g/)f/ | %51
 [Ac][Ac][Ac] [Ac][Bd][ce] | [df]2 [Bd] z/ D/F/B/F/D/ | A/^F/E/C/E/F/ A/F/E/C/E/F/ | %54
 G/D/B,/D/G/B/ G/D/B,/D/G/B/ | c/A/^F/D/F/A/ B/G/D/B,/D/G/ | [GB]3 !fermata![^FA]2 ||[K:G] z | %58
 B,/D/G/D/B,/G/ A,/D/F/D/A,/F/ | B,/D/G/D/B,/G/ B,/D/G/D/B,/G/ | C/D/F/D/C/F/ B,/D/G/D/B,/G/ | %61
 A,/D/F/D/A,/F/ A,/D/F/D/A,/F/ | A,/E/G/E/A,/G/ A,/D/F/D/A,/F/ | %63
 z/ [DG]/ z/ [DFA]/ z/ [DGB]/ [CEA]3 | B,/D/G/D/B,/G/ [CDF]3 | G2 z d/g/d/B/A/G/ | %66
{FGA} G2 F a/c'/a/f/d/c/ |{Bcd} c2 B [eg]/>[fa]/[eg]/>[df]/[ce] | %68
 [Bd]/>[ce]/[Bd]/>[Ac]/[GB] [eg]/>[fa]/[eg]/>[df]/[ce] | [Bd]/g/b/g/d/B/ [Ac]/d/4c/4[GB][FA] | %70
 [B,G][B,G][B,G] [B,G]2 z |] %71
V:3
 (G,B,D) (G,B,D) | (G,B,D) (G,B,D) | A,CD F,DD | G,B,D B,G,D | A,CD D,DD | %5
 G,G,G, [C,C][C,C][^C,^C] | [D,D][D,D][D,D] [D,D][D,D][D,D] | [G,,G,]D,B,, G,,2 z | G,3 D,3 | %9
 G,,3 G,3 | A,3 G,3 | D,3 z2 D, | ^C,3 =C,3 | (B,,A,,G,,) C,2 A,, | D,3 D,3 | G,B,D G,B,D | %16
 A,CD D,DD | G,DG G,2 G, | G,2 G, G,2 G, | G,2 G, CDD, | G,D,B,, G,,2 z | G,3 G,3 | G,3 z3 | %23
 G,,3 D,3 | G,,3 G,3 | G,3 F,3 | E,3 E,F,G, | A,3 A,,3 | D,DD =CDD | B,DG G,F,G, | D,DD CDC | %31
 B,DG G,F,G, | DB,G, D,2 z | G,3 D,3 | G,,3 G,3 | A,3 G,3 | D,3 z2 D, | ^C,3 =C,3 | %38
 B,,A,,G,, C,2 A,, | [D,,D,]3 D,3 | G,D,B,, G,,2 z ||[K:Gmin] .G,G,A, B,C^C | DED CB,A, | %43
 .G,G,A, B,C^C | DED CB,A, | G,G,G, F,F,F, | B,B,B, [E,,E,]3 | F,F,F, F,F,F, | F,3 F3 | %49
 E,/F,/A,/C/A,/F,/ E,/F,/A,/C/A,/F,/ | D,/F,/B,/D/B,/F,/ D,/F,/B,/D/B,/F,/ | %51
 E,/F,/A,/C/A,/F,/ E,/F,/A,/C/A,/F,/ | D,/F,/B,/D/B,/F,/ D,3 | D,D,D, D,D,D, | D,D,D, D,D,D, | %55
 [D,,D,][D,,D,][D,,D,] [D,,D,][D,,D,][D,,D,] | [D,,D,]3 !fermata!D,,2 ||[K:G] z | G,3 D,3 | %59
 G,,3 G,3 | A,3 G,3 | F,3 z2 F, | ^C,3 =C,3 | B,,A,,G,, [C,,C,]3 | D,3 D,3 | G,B,D G,B,D | %66
 A,CD F,DD | G,DG G,2 G, | G,2 G, G,2 G, | G,2 G, CDD, | G,D,B,, G,,2 z |] %71

